src/assets/outline/Buildings2.svg

<svg width="24" height="24" viewBox="0 0 24 24"  xmlns="http://www.w3.org/2000/svg">
<path d="M6.70001 18.75H4.15002C2.31002 18.75 1.25 17.69 1.25 15.85V4.15002C1.25 2.31002 2.31002 1.25 4.15002 1.25H8.45001C10.29 1.25 11.35 2.31002 11.35 4.15002V6C11.35 6.41 11.01 6.75 10.6 6.75C10.19 6.75 9.84998 6.41 9.84998 6V4.15002C9.84998 3.13002 9.47001 2.75 8.45001 2.75H4.15002C3.13002 2.75 2.75 3.13002 2.75 4.15002V15.85C2.75 16.87 3.13002 17.25 4.15002 17.25H6.70001C7.11001 17.25 7.45001 17.59 7.45001 18C7.45001 18.41 7.11001 18.75 6.70001 18.75Z" />
<path d="M14.9602 22.75H9.12018C7.11018 22.75 5.9502 21.59 5.9502 19.58V8.41998C5.9502 6.40998 7.11018 5.25 9.12018 5.25H14.9602C16.9702 5.25 18.1202 6.40998 18.1202 8.41998V19.58C18.1202 21.59 16.9702 22.75 14.9602 22.75ZM9.12018 6.75C7.92018 6.75 7.4502 7.21998 7.4502 8.41998V19.58C7.4502 20.78 7.92018 21.25 9.12018 21.25H14.9602C16.1502 21.25 16.6202 20.78 16.6202 19.58V8.41998C16.6202 7.21998 16.1502 6.75 14.9602 6.75H9.12018Z" />
<path d="M19.8499 18.75H17.3699C16.9599 18.75 16.6199 18.41 16.6199 18C16.6199 17.59 16.9599 17.25 17.3699 17.25H19.8499C20.8699 17.25 21.2499 16.87 21.2499 15.85V4.15002C21.2499 3.13002 20.8699 2.75 19.8499 2.75H15.5499C14.5299 2.75 14.1499 3.13002 14.1499 4.15002V6C14.1499 6.41 13.8099 6.75 13.3999 6.75C12.9899 6.75 12.6499 6.41 12.6499 6V4.15002C12.6499 2.31002 13.7099 1.25 15.5499 1.25H19.8499C21.6899 1.25 22.7499 2.31002 22.7499 4.15002V15.85C22.7499 17.69 21.6899 18.75 19.8499 18.75Z" />
<path d="M14 11.75H10C9.59 11.75 9.25 11.41 9.25 11C9.25 10.59 9.59 10.25 10 10.25H14C14.41 10.25 14.75 10.59 14.75 11C14.75 11.41 14.41 11.75 14 11.75Z" />
<path d="M14 14.75H10C9.59 14.75 9.25 14.41 9.25 14C9.25 13.59 9.59 13.25 10 13.25H14C14.41 13.25 14.75 13.59 14.75 14C14.75 14.41 14.41 14.75 14 14.75Z" />
<path d="M12 22.75C11.59 22.75 11.25 22.41 11.25 22V19C11.25 18.59 11.59 18.25 12 18.25C12.41 18.25 12.75 18.59 12.75 19V22C12.75 22.41 12.41 22.75 12 22.75Z" />
</svg>

<?xml version="1.0" encoding="UTF-8"?>
<svg width="24" height="24" viewBox="0 0 24 24" xmlns="http://www.w3.org/2000/svg">
 <path d="m6.7 18.75h-2.55c-1.84 0-2.9-1.06-2.9-2.9v-11.7c0-1.84 1.06-2.9 2.9-2.9h4.3c1.84 0 2.9 1.06 2.9 2.9v1.85c0 0.41-0.34 0.75-0.75 0.75s-0.75002-0.34-0.75002-0.75v-1.85c0-1.02-0.37997-1.4-1.4-1.4h-4.3c-1.02 0-1.4 0.38002-1.4 1.4v11.7c0 1.02 0.38002 1.4 1.4 1.4h2.55c0.41 0 0.75 0.34 0.75 0.75s-0.34 0.75-0.75 0.75z"/>
 <path d="m14.96 22.75h-5.84c-2.01 0-3.17-1.16-3.17-3.17v-11.16c0-2.01 1.16-3.17 3.17-3.17h5.84c2.01 0 3.16 1.16 3.16 3.17v11.16c0 2.01-1.15 3.17-3.16 3.17zm-5.84-16c-1.2 0-1.67 0.46998-1.67 1.67v11.16c0 1.2 0.46998 1.67 1.67 1.67h5.84c1.19 0 1.66-0.47 1.66-1.67v-11.16c0-1.2-0.47-1.67-1.66-1.67h-5.84z"/>
 <path d="m19.85 18.75h-2.48c-0.41 0-0.75-0.34-0.75-0.75s0.34-0.75 0.75-0.75h2.48c1.02 0 1.4-0.38 1.4-1.4v-11.7c0-1.02-0.38-1.4-1.4-1.4h-4.3c-1.02 0-1.4 0.38002-1.4 1.4v1.85c0 0.41-0.34 0.75-0.75 0.75s-0.75-0.34-0.75-0.75v-1.85c0-1.84 1.06-2.9 2.9-2.9h4.3c1.84 0 2.9 1.06 2.9 2.9v11.7c0 1.84-1.06 2.9-2.9 2.9z"/>
 <path d="m14 11.75h-4c-0.41 0-0.75-0.34-0.75-0.75s0.34-0.75 0.75-0.75h4c0.41 0 0.75 0.34 0.75 0.75s-0.34 0.75-0.75 0.75z"/>
 <path d="m14 14.75h-4c-0.41 0-0.75-0.34-0.75-0.75s0.34-0.75 0.75-0.75h4c0.41 0 0.75 0.34 0.75 0.75s-0.34 0.75-0.75 0.75z"/>
 <path d="m12 22.75c-0.41 0-0.75-0.34-0.75-0.75v-3c0-0.41 0.34-0.75 0.75-0.75s0.75 0.34 0.75 0.75v3c0 0.41-0.34 0.75-0.75 0.75z"/>
</svg>
